src/components/Icon/svg-icon/main/pitch-stage.svg

<svg xmlns="http://www.w3.org/2000/svg" width="24" height="24" viewBox="0 0 24 24">
  <path fill="#677078" d="M6.43333333,10.8571429 L2,15.4285714 L6.43333333,20 L6.43333333,16.5714286 L14.2222222,16.5714286 L14.2222222,14.2857143 L6.43333333,14.2857143 L6.43333333,10.8571429 Z M22,8.57142857 L17.5666667,4 L17.5666667,7.42857143 L9.77777778,7.42857143 L9.77777778,9.71428571 L17.5666667,9.71428571 L17.5666667,13.1428571 L22,8.57142857 Z"/>
</svg>

<svg xmlns="http://www.w3.org/2000/svg" width="24" height="24"><path fill="#677078" d="M6.433 10.857L2 15.43 6.433 20v-3.429h7.79v-2.285h-7.79v-3.429zM22 8.571L17.567 4v3.429h-7.79v2.285h7.79v3.429L22 8.57z"/></svg>
